X:19087
T:Xiraldilla (CT 454)
R:Xiraldilla
C:Tradicional
S:Música Tradicional Asturiana, (C) Tello & Tito. Asturies, 2001.
S:http://pagina.de/MusTradAst <telloytito@asturies.org>
N:Xiraldilla, dictada por José Antonio Larriba, de cuarenta y un años, de Xixón.
O:Xixón
A:Asturies
Z:Cancioneru de Torner 454
M:2/4
L:1/8
Q:1/4=160
W:Arena, arena, arena,
W:arena de la mar,
W:arena, arena, arena,
W:yo me voy a embarcar.
W:
W:Después de embarcadito
W:te enseñaré a remar,
W:por verte, vida mía,
W:por verte navegar.
W:
W:Por verte, vida mía,
W:por verte navegar;
W:por verte, vida mía,
W:sirenita del mar.
K:C
G|cc cc|B2 G_B|_BB B_A|B2 zF|_AA AA|G2 _EF|GG GF|G2 z :||


